X:41
T:Sir Charles Grandison. JJo8. 041
%%VWML:JohnsonVol8-2184-p21-0
F:http://www.vwml.org/record/JohnsonVol8/2184/p21
Z:Transcribed by Simon Furey and Lewis Jones
Z:vmp.Simon Wilson 2013 www.village-music-project.org.uk
Z:Dance added by John Chambers 2017
N:Sir Charles Grandison, a novel by Samuel Richardson published in 1753.
T:Willing Maid. JJo8.041, The
M:2/4
L:1/8
%Q:1/2=90
K:G
|:\
g2fg | dgg2 | face | dBAG |\
g2fg | dbag | faAc | d2D2 :|
|:\
d2cB | cafc | c2BA | BgcA |\
B2AG | Eedc | BdDF | G2G,2 :|
W: Cast off and turn you Partner .|.
W:Lead thro' the 3d Cu. cast up to the
W:Top .||. Cross over two Cu :||. Lead
W:up to the Top cast off :||:
W:
T:Lady Doll St. Clair's Reel. JJo8.042
B:J.Johnson Choice Collection Vol 8 1758
Z:vmp.Simon Wilson 2013 www.village-music-project.org.uk
Z:Dance added by John Chambers 2017
M:C|
L:1/8
%Q:1/2=80
K:Bm
B | A/A/A cA dBcA | Bg2d BGGB | A/A/A cA dBcA | Ba2e cA A :: g | (a/g/f/e/) ca eaca |
Bg2d BGGg |1 (a/g/f/e/) ca eaca | Ba2e cA A :|2 (a/g/f) (g/f/e) (f/e/d) (e/d/c) | Ba2e cA A |]
W: The 1st Cu. cast off two Cu. :| Cast up again .|
W:Cross over two Cu. .|. Lead up to the Top, foot it
W:and cast off :| Turn Corners with your Right
W:hands, and you Partner with your Left hand
W:.||. Lead out Sides and turn your Partner :||:
W:
